src/assets/selectIcons/materiale_2.svg

<svg xmlns="http://www.w3.org/2000/svg" viewBox="0 0 512 512"><path d="M0 0h512v512H0z"/><path fill="#fff" d="M344.578 493.54l-117.214-2.024L118.9 338.536l14.355-51.353 35.264 9.38 40.145 42.033-17.467-59.874 23.836-35.358-42.748-104.034 43.165-79.45 72.434 22.468 46.26 80.46-29.474 5-38.478-35.017 22.568 48.064-.672 37.364-26.09 18.224 34.95 1.284 47.145 23.835 28.75-27.874 38.488 19.057 10.647 37.578-18.97-13.784-78.166 39.967-44.983-15.39 5.86-27.153-42.766 3.274 23.573 11.913-9.49 22.943 58.037 31.285 20.34 79.423-15.45 34.73 29.397-20.36 66.83-9.438-71.61 65.81zm-158.524-3.538l-53.48-2.296 27.663-64.006 34.38 49.695-8.563 16.607zm-86.78-37.04l-11.08-34.875-35.503-10.204 34.858-11.09 10.212-35.5 11.09 34.855 35.502 10.22-34.857 11.082-10.22 35.51zm252.983-33.208l-21.565-84.228 72.042-38.99 53.683 59.322-18.665 52.23-85.495 11.666zM169.47 280.677l-59.133-15.612-20.298-69.16 66.064-37.45 36.94 84.126-23.573 38.097zm172.106-38.972l-38.385-19.66 1.574-38.86 43.607-9.917 26.753 39.296-33.547 29.14zm58.845-47.23l-14.234-45.425-46.14-13.46 45.41-14.262 13.46-46.132 14.252 45.41 46.14 13.478-45.41 14.235-13.477 46.156zM327.01 124.9l-28.666-56.762-28.972-7.96 22.645-41.718 29.312 14.278 17.84 59.542-12.16 32.62z"/></svg>

<?xml version="1.0" encoding="UTF-8" standalone="no"?>
<!DOCTYPE svg PUBLIC "-//W3C//DTD SVG 1.1//EN" "http://www.w3.org/Graphics/SVG/1.1/DTD/svg11.dtd">
<svg width="100%" height="100%" viewBox="0 0 512 512" version="1.1" xmlns="http://www.w3.org/2000/svg" xmlns:xlink="http://www.w3.org/1999/xlink" xml:space="preserve" xmlns:serif="http://www.serif.com/" style="fill-rule:evenodd;clip-rule:evenodd;stroke-linejoin:round;stroke-miterlimit:2;">
    <rect x="0" y="0" width="512" height="512" style="fill-rule:nonzero;"/>
    <path d="M99.274,452.962L88.194,418.087L52.691,407.883L87.549,396.793L97.761,361.293L108.851,396.148L144.353,406.368L109.496,417.45L99.276,452.96L99.274,452.962ZM400.421,194.475L386.187,149.05L340.047,135.59L385.457,121.328L398.917,75.196L413.169,120.606L459.309,134.084L413.899,148.319L400.422,194.475L400.421,194.475Z" style="fill:white;fill-rule:nonzero;"/>
    <path d="M344.578,493.54L227.364,491.516L118.9,338.536L133.255,287.183L168.519,296.563L208.664,338.596L191.197,278.722L215.033,243.364L172.285,139.33L215.45,59.88L287.884,82.348L334.144,162.808L304.67,167.808L266.192,132.791L288.76,180.855L288.088,218.219L261.998,236.443L296.948,237.727L344.093,261.562L372.843,233.688L411.331,252.745L421.978,290.323L403.008,276.539L324.842,316.506L279.859,301.116L285.719,273.963L242.953,277.237L266.526,289.15L257.036,312.093L315.073,343.378L335.413,422.801L319.963,457.531L349.36,437.171L416.19,427.733L344.58,493.543L344.578,493.54Z" style="fill:rgb(127,127,127);"/>
    <path d="M186.054,490.002L132.574,487.706L160.237,423.7L194.617,473.395L186.054,490.002ZM352.257,419.754L330.692,335.526L402.734,296.536L456.417,355.858L437.752,408.088L352.257,419.754ZM169.47,280.678L110.337,265.065L90.039,195.905L156.103,158.455L193.043,242.581L169.47,280.678ZM341.576,241.705L303.191,222.045L304.765,183.185L348.372,173.268L375.125,212.564L341.578,241.704L341.576,241.705ZM327.01,124.9L298.344,68.138L269.372,60.178L292.017,18.46L321.329,32.738L339.169,92.28L327.01,124.9Z" style="fill:rgb(187,224,122);"/>
</svg>
